src/components/stable/gux-icon/icons/cjv-form-abandoned.svg

<svg viewBox="0 0 40 40" version="1.1" xmlns="http://www.w3.org/2000/svg" xmlns:xlink="http://www.w3.org/1999/xlink">
    <title>Form Abandoned</title>
    <g stroke="none" stroke-width="1" fill="none" fill-rule="evenodd">
        <g id="cjv-form-abandon">
            <circle id="Oval" fill="#FFFFFF" cx="20" cy="20" r="20"/>
            <g id="cjv-form-abandon﻿" fill="#444A52">
                <polygon id="Path" fill-rule="nonzero" points="15.7574 21.1716 17.1716 19.7574 20 22.5858 22.8284 19.7574 24.2427 21.1716 21.4142 24 24.2427 26.8284 22.8284 28.2426 20 25.4142 17.1716 28.2426 15.7574 26.8284 18.5858 24"/>
                <path d="M40,20 C40,31.0457 31.0457,40 20,40 C8.9543,40 0,31.0457 0,20 C0,8.9543 8.9543,0 20,0 C31.0457,0 40,8.9543 40,20 Z M21.5863,16.5631 L29,16.5631 L29,30.7155 C29,31.0562 28.8623,31.3829 28.6172,31.6238 C28.3721,31.8647 28.0397,32 27.6931,32 L12.3069,32 C11.9603,32 11.6279,31.8647 11.3828,31.6238 C11.1377,31.3829 11,31.0562 11,30.7155 L11,9.2845 C11,8.9438 11.1377,8.6171 11.3828,8.3762 C11.6279,8.1353 11.9603,8 12.3069,8 L20.2794,8 L20.2794,15.2864 C20.2815,15.6257 20.4201,15.9504 20.6649,16.1896 C20.9098,16.4288 21.241,16.5631 21.5863,16.5631 Z M22.0219,8.5294 C22.1999,8.6406 22.3647,8.7711 22.513,8.9186 L28.0574,14.3678 C28.2077,14.5134 28.3406,14.6753 28.4535,14.8505 L22.0219,14.8505 L22.0219,8.5294 Z" id="Shape"/>
            </g>
        </g>
    </g>
</svg>

<svg viewBox="0 0 40 40" xmlns="http://www.w3.org/2000/svg"><g fill="none" fill-rule="evenodd"><circle fill="#FFF" cx="20" cy="20" r="20"/><g fill="#444A52"><path fill-rule="nonzero" d="M15.757 21.172l1.415-1.415L20 22.586l2.828-2.829 1.415 1.415L21.414 24l2.829 2.828-1.415 1.415L20 25.414l-2.828 2.829-1.415-1.415L18.586 24z"/><path d="M40 20c0 11.046-8.954 20-20 20S0 31.046 0 20 8.954 0 20 0s20 8.954 20 20zm-18.414-3.437H29v14.152c0 .341-.138.668-.383.909-.245.24-.577.376-.924.376H12.307c-.347 0-.68-.135-.924-.376a1.273 1.273 0 01-.383-.909V9.285c0-.341.138-.668.383-.909.245-.24.577-.376.924-.376h7.972v7.286c.003.34.141.664.386.904.245.239.576.373.921.373zm.436-8.034a2.8 2.8 0 01.491.39l5.544 5.449c.15.145.284.307.396.482h-6.431V8.53z"/></g></g></svg>
